svgs/sharp-duotone-thin/fish-bones.svg

<svg xmlns="http://www.w3.org/2000/svg" viewBox="0 0 576 512"><!--! Font Awesome Pro 7.1.0 by @fontawesome - https://fontawesome.com License - https://fontawesome.com/license (Commercial License) Copyright 2025 Fonticons, Inc. --><path opacity=".4" fill="currentColor" d="M18.6 132l43.5 116 33.9 0 0-90.1-62-41.3-15.4 15.4zm0 247.9L34 395.4 96 354.1c0-30 0-60.1 0-90.1l-33.9 0-43.5 116zM432 128l0 256 8.8 0 113.8-128-113.8-128-8.8 0z"/><path fill="currentColor" d="M62.1 248l81.9 0 0-96 16 0 0 96 80 0 0-96 16 0 0 96 80 0 0-96 16 0 0 96 64 0 0-136 32 0 128 144-128 144-32 0 0-136-64 0 0 96-16 0 0-96-80 0 0 96-16 0 0-96-80 0 0 96-16 0 0-96-81.9 0-43.5 116 15.4 15.4 62-41.3 0 19.2-64 42.7-32-32 48-128-48-128 32-32 64 42.7 0 19.2-62-41.3-15.4 15.4 43.5 116zM432 264l0 120 8.8 0 113.8-128-113.8-128-8.8 0 0 136z"/></svg>

<svg xmlns="http://www.w3.org/2000/svg" viewBox="0 0 576 512"><!--! Font Awesome Pro 6.7.2 by @fontawesome - https://fontawesome.com License - https://fontawesome.com/license (Commercial License) Copyright 2024 Fonticons, Inc. --><defs><style>.fa-secondary{opacity:.4}</style></defs><path class="fa-secondary" d="M18.6 132L62.1 248 96 248l0-90.1L34 116.6 18.6 132zm0 247.9L34 395.4l62-41.3c0-30 0-60.1 0-90.1l-33.9 0L18.6 380zM432 128l0 120 0 16 0 120 8.8 0L554.6 256 440.8 128l-8.8 0z"/><path class="fa-primary" d="M62.1 248l81.9 0 0-88 0-8 16 0 0 8 0 88 80 0 0-88 0-8 16 0 0 8 0 88 80 0 0-88 0-8 16 0 0 8 0 88 64 0 0-120 0-16 16 0 16 0L576 256 448 400l-16 0-16 0 0-16 0-120-64 0 0 88 0 8-16 0 0-8 0-88-80 0 0 88 0 8-16 0 0-8 0-88-80 0 0 88 0 8-16 0 0-8 0-88-81.9 0L18.6 380 34 395.4l62-41.3 0 19.2L32 416 0 384 48 256 0 128 32 96l64 42.7 0 19.2L34 116.6 18.6 132 62.1 248zM432 264l0 120 8.8 0L554.6 256 440.8 128l-8.8 0 0 120 0 16z"/></svg>
